X:2
T:Fools Rush In
C:Rube Bloom
L:1/4
M:C
I:linebreak $
K:C
"Dm" A A"DmM" A2 |"Dm" z B"Do" e/d/B/A/ |"Em" G4 | z"Am" A c/B/A/G/ |$"Dm" F F F2 |
"Db7" z G B/A/G/F/ |"C" E4 |"C#o" z2 A E |$"Dm" D4 |"G4" z A G E |"C6" C4 |"Am" z D E G |$
"D7" ^G A A2 |"Am" z A"Ebo" B c |"Dm" d4 |"G7" z"F" z"Em" z"Eb7" z ||$"Dm" A A"DmM" A2 |
"Dm" z B"Do" e/d/B/A/ |"Em" G4 | z"Am" A c/B/A/G/ |$"Dm" F F F2 |"Db7" z G B/A/G/F/ |"Bb7" E4 |
"A7" z4 |$"Dm" D D"Em" D2 |"Fm" z F"Bb7" ^G c |"Em" e e e2 |"Am" z e d/c/A/c/ |$"Dm" d d d2 |
"G4" z d c B |"C6" c4 | z4 |]

